svg/phase_angle.svg

<svg width="24" height="24" viewBox="0 0 24 24"  xmlns="http://www.w3.org/2000/svg">
<path fill-rule="evenodd" clip-rule="evenodd" d="M2 19H22V17H11.9V16.5C11.9 14.6 10.8 12.9 9.2 12.1L14.7 4.1L13.1 3L2 19ZM9.9 17H5.8L8 13.7C9.1 14.2 9.9 15.2 9.9 16.5V17Z" />
<path fill-rule="evenodd" clip-rule="evenodd" d="M16.5 15.5V14H16.1C14.4477 14 13.1 12.6523 13.1 11C13.1 9.34772 14.4477 8 16.1 8H16.5V6.5H18.5V8H19C20.6523 8 22 9.34772 22 11C22 12.6523 20.6523 14 19 14H18.5V15.5H16.5ZM19 12H18.5V10H19C19.5477 10 20 10.4523 20 11C20 11.5477 19.5477 12 19 12ZM16.1 12H16.5V10H16.1C15.5523 10 15.1 10.4523 15.1 11C15.1 11.5477 15.5523 12 16.1 12Z" />
</svg>

<svg width="24" height="24" viewBox="0 0 24 24" xmlns="http://www.w3.org/2000/svg"><path fill-rule="evenodd" clip-rule="evenodd" d="M2 19h20v-2H11.9v-.5c0-1.9-1.1-3.6-2.7-4.4l5.5-8L13.1 3 2 19zm7.9-2H5.8L8 13.7c1.1.5 1.9 1.5 1.9 2.8v.5z"/><path fill-rule="evenodd" clip-rule="evenodd" d="M16.5 15.5V14h-.4c-1.652 0-3-1.348-3-3s1.348-3 3-3h.4V6.5h2V8h.5c1.652 0 3 1.348 3 3s-1.348 3-3 3h-.5v1.5h-2zM19 12h-.5v-2h.5c.548 0 1 .452 1 1s-.452 1-1 1zm-2.9 0h.4v-2h-.4c-.548 0-1 .452-1 1s.452 1 1 1z"/></svg>
